!!!COM: Schubert, Franz
!!!CNT: Deutscher
!!!TXO: Deutsch
!!!LYR: Friedrich von Schlegel
!!!OTL: "Die Berge"
!!!OPS: Op. 57
!!!ONM: No. 2
!!!ODT: 1819/
!!NB: Vocal melody only encoded.
!!NB: Original key: G Major
**kern	**silbe
*clefG2	*
*k[f#c#g#d#]	*
*M6/8	*
*MM[Lebhaft]	*
=4	=4
{8.e	{Sieht
16g#	uns
8e	der
4b	Blick
8g#	ge-
=5	=5
[4.ee	ho-
4ee]	|
8b	|
=6	=6
4.g#}	-ben,}
4r	.
{8g#	{so
=7	=7
8b	glaubt
8g#	|
8f#	das
4e#	Herz
8cc#	die
=8	=8
4f#	Schwe-
8g#	-re
4a	zu
8b	be-
=9	=9
[4.cc#	-sie
4cc#]	|
8ee	|
=10	=10
[4.ee	-gen,
8ee]}	|}
{8e	{zu
8e	den
=11	=11
[4.a	Himm-
8a]	|
8b	-li-
8cc#	-schen
=12	=12
4.ddn	o-
8b}	-ben}
{8cc#	{will
8b	es
=13	=13
[4.a	drin-
8a]	|
8b	-gen
8cc#	und
=14	=14
4.ddn	flie-
4b	-gen.
8cc#	Der
=15	=15
4cc#	Mensch,
8cc#	em-
8cc#	-por
8ddn	|
8cc#	ge-
=16	=16
[4.cc#	-schwun-
4cc#]	|
8a	|
=17	=17
4f#}	-gen,}
8r	.
{4.g#	{glaubt
=18	=18
4.c#	schon,
4.e	er
=19	=19
8.A	sei
16c#	durch
8e	die
8a	Wol-
8cc#	-ken
8ee	ge-
=20	=20
2.b	drun-
=21	=21
4e}	-gen.}
8r	.
8r	.
8r	.
8r	.
=22	=22
2.r	.
=23	=23
2.r	.
=24	=24
2.r	.
=25	=25
2.r	.
=26	=26
4r	.
8r	.
{8b	{Bald
8b	muss
8a	er
=27	=27
4gn	stau-
8f#	-nend
8e	mer-
8e}	-ken,}
8r	.
=28	=28
4r	.
{8e	{wie
4gn	e-
8f#	-wig
=29	=29
4.e	fest
8e	wir
8e	auf
8dn	uns
=30	=30
4.c#	selbst
4.Gn	be-
=31	=31
4cn	-gru2n-
8cn}	-det.}
8r	.
8r	.
8r	.
=32	=32
4r	.
8r	.
{4.cn	{Dann
=33	=33
4B	strebt
8B	in
4e	si-
8e	-chern
=34	=34
8d#	Wer-
8B	-ken
8B	sein
4dn	gan-
8dn	-zes
=35	=35
4c#	Tun,
8c#	ver-
4.f#	-bu2n-
=36	=36
4.e}	-det,}
4r	.
{8e	{vom
=37	=37
8eq	Grun-
4d#	|
8d#	-de
4a#	nie
8a#	zu
=38	=38
4f##	wan-
8d#}	-ken,}
4r	.
{8d#	{und
=39	=39
4.g#	baut
4.b	wie
=40	=40
4.c#	Fel-
4e	-sen
8e	den
=41	=41
4.d#	Bau
4d#	der
8d#	Ge-
=42	=42
4B	-dan-
8G#}	-ken.}
8r	.
8r	.
8r	.
=43	=43
2.r	.
=44	=44
2.r	.
=45	=45
2.r	.
=46	=46
2.r	.
=47	=47
2.r	.
=48	=48
2.r	.
=49	=49
2.r	.
=50	=50
4r	.
8r	.
4r	.
{8e	{Und
=51	=51
8.e	dann
16g#	|
8e	in
4b	neu-
8g#	-en
=52	=52
[4.ee	Freu-
4ee]	|
8b	|
=53	=53
4.g#}	-den}
4.r	.
=54	=54
{8b	{sieht
8g#	er
8f#	die
4e#	ku2h-
8cc#	-nen
=55	=55
4f#	Klip-
8g#	-pen
4a	spot-
8b	-tend
=56	=56
[4.cc#	han-
4cc#]	|
8ee	|
=57	=57
4.ee}	-gen;}
4r	.
{8e	{ver-
=58	=58
4a	-ges-
8a	-send
8a	al-
8b	|
8cc#	-ler
=59	=59
4.ddn	Lei-
8b	-den,
8cc#	fu2hlt
8b	er
=60	=60
[4.a	ein-
8a]	|
8b	-zig
8cc#	Ver-
=61	=61
4.ddn	-lan-
8b}	-gen,}
{8cc#	{an
8cc#	dem
=62	=62
4.cc#	Ab-
8cc#	-grund
8ddn	|
8cc#	zu
=63	=63
[4.cc#	scher-
4cc#]	|
8a	|
=64	=64
4f#}	-zen,}
8r	.
{4.g#	{denn
=65	=65
4c#	ho-
8c#	-her
4.e	Mut
=66	=66
8.A	schwillt
16c#	ihm
8e	in
8a	ho-
8cc#	|
8ee	-hem
=67	=67
2.b	Her-
=68	=68
4e}	-zen.}
8r	.
8r	.
8r	.
8r	.
==	==
*-	*-
